icons/copy-16.svg

<svg xmlns="http://www.w3.org/2000/svg" width="16" height="16" viewBox="0 0 16 16">
  <defs/>
  <path d="M0,6.75 C0,5.784 0.784,5 1.75,5 L3.25,5 C3.664,5 4,5.336 4,5.75 C4,6.164 3.664,6.5 3.25,6.5 L1.75,6.5 C1.612,6.5 1.5,6.612 1.5,6.75 L1.5,14.25 C1.5,14.388 1.612,14.5 1.75,14.5 L9.25,14.5 C9.388,14.5 9.5,14.388 9.5,14.25 L9.5,12.75 C9.5,12.336 9.836,12 10.25,12 C10.664,12 11,12.336 11,12.75 L11,14.25 C11,15.216 10.216,16 9.25,16 L1.75,16 C0.784,16 0,15.216 0,14.25 Z"/>
  <path d="M5,1.75 C5,0.784 5.784,0 6.75,0 L14.25,0 C15.216,0 16,0.784 16,1.75 L16,9.25 C16,10.216 15.216,11 14.25,11 L6.75,11 C5.784,11 5,10.216 5,9.25 Z M6.75,1.5 C6.612,1.5 6.5,1.612 6.5,1.75 L6.5,9.25 C6.5,9.388 6.612,9.5 6.75,9.5 L14.25,9.5 C14.388,9.5 14.5,9.388 14.5,9.25 L14.5,1.75 C14.5,1.612 14.388,1.5 14.25,1.5 Z"/>
</svg>

<svg xmlns="http://www.w3.org/2000/svg" width="16" height="16" viewBox="0 0 16 16"><path d="M0 6.75C0 5.784.784 5 1.75 5h1.5a.75.75 0 010 1.5h-1.5a.25.25 0 00-.25.25v7.5c0 .138.112.25.25.25h7.5a.25.25 0 00.25-.25v-1.5a.75.75 0 011.5 0v1.5A1.75 1.75 0 019.25 16h-7.5A1.75 1.75 0 010 14.25z"/><path d="M5 1.75C5 .784 5.784 0 6.75 0h7.5C15.216 0 16 .784 16 1.75v7.5A1.75 1.75 0 0114.25 11h-7.5A1.75 1.75 0 015 9.25zm1.75-.25a.25.25 0 00-.25.25v7.5c0 .138.112.25.25.25h7.5a.25.25 0 00.25-.25v-7.5a.25.25 0 00-.25-.25z"/></svg>
